sources/svgs/phneutral_logo.svg

<?xml version="1.0" encoding="utf-8"?>
<!-- Generator: Adobe Illustrator 16.0.4, SVG Export Plug-In . SVG Version: 6.00 Build 0)  -->
<!DOCTYPE svg PUBLIC "-//W3C//DTD SVG 1.1//EN" "http://www.w3.org/Graphics/SVG/1.1/DTD/svg11.dtd">
<svg version="1.1" id="Ebene_1" xmlns="http://www.w3.org/2000/svg" xmlns:xlink="http://www.w3.org/1999/xlink" x="0px" y="0px"
	 width="300px" height="300px" viewBox="0 0 300 300" enable-background="new 0 0 300 300" xml:space="preserve">
<g>
	<g>
		<path fill="#2C8C5F" d="M200.86,39.286H99.255l-63.349,79.438l22.61,99.05l91.542,44.083l91.54-44.083l22.609-99.05L200.86,39.286
			z M213.462,197.122l-63.404,30.533l-63.407-30.533L70.988,128.51l43.881-55.023h70.376l43.881,55.023L213.462,197.122z"/>
		<g>
			<path fill="#2C8C5F" d="M155.729,131.755c3.068-6.011,5.642-7.975,5.642-7.975v-0.244c0,0-1.225,0.368-5.642,0.368h-34.593
				v-18.402h62.933v14.966l-36.804,72.743H124.94L155.729,131.755z"/>
		</g>
	</g>
</g>
</svg>

<?xml version="1.0" encoding="UTF-8" standalone="no"?>
<!DOCTYPE svg PUBLIC "-//W3C//DTD SVG 1.1//EN" "http://www.w3.org/Graphics/SVG/1.1/DTD/svg11.dtd">
<svg width="100%" height="100%" viewBox="0 0 300 300" version="1.1" xmlns="http://www.w3.org/2000/svg" xmlns:xlink="http://www.w3.org/1999/xlink" xml:space="preserve" xmlns:serif="http://www.serif.com/" style="fill-rule:evenodd;clip-rule:evenodd;stroke-linejoin:round;stroke-miterlimit:2;">
    <g transform="matrix(1.30685,0,0,1.30685,-46.0442,-49.2022)">
        <g>
            <path d="M200.86,39.286L99.255,39.286L35.906,118.724L58.516,217.774L150.058,261.857L241.598,217.774L264.207,118.724L200.86,39.286ZM213.462,197.122L150.058,227.655L86.651,197.122L70.988,128.51L114.869,73.487L185.245,73.487L229.126,128.51L213.462,197.122Z" style="fill:rgb(44,140,95);fill-rule:nonzero;"/>
            <g>
                <path d="M155.729,131.755C158.797,125.744 161.371,123.78 161.371,123.78L161.371,123.536C161.371,123.536 160.146,123.904 155.729,123.904L121.136,123.904L121.136,105.502L184.069,105.502L184.069,120.468L147.265,193.211L124.94,193.211L155.729,131.755Z" style="fill:rgb(44,140,95);fill-rule:nonzero;"/>
            </g>
        </g>
    </g>
</svg>
